src/icons/logos/netlify-grid.svg

<svg width="650" height="220" viewBox="0 0 650 220" fill="none" xmlns="http://www.w3.org/2000/svg">
    <path fill-rule="evenodd" clip-rule="evenodd" d="M236.162 85.4277L236.706 95.1538C242.914 87.6313 251.065 83.8701 261.154 83.8701C278.637 83.8701 287.536 93.906 287.846 113.978V169.591H268.995V115.066C268.995 109.725 267.845 105.774 265.544 103.203C263.243 100.636 259.477 99.3531 254.251 99.3531C246.645 99.3531 240.976 102.805 237.259 109.699V169.591H218.4V85.4277H236.171H236.162ZM344.035 171.149C332.087 171.149 322.396 167.379 314.976 159.834C307.55 152.289 303.838 142.24 303.838 129.691V127.359C303.838 118.96 305.453 111.451 308.688 104.84C311.918 98.2292 316.462 93.0829 322.308 89.3969C328.153 85.7197 334.671 83.8789 341.866 83.8789C353.296 83.8789 362.133 87.534 368.363 94.8441C374.602 102.159 377.718 112.5 377.718 125.881V133.505H322.848C323.423 140.453 325.733 145.948 329.795 149.993C333.857 154.037 338.968 156.06 345.123 156.06C353.761 156.06 360.796 152.564 366.23 145.559L376.395 155.285C373.032 160.312 368.545 164.215 362.934 166.989C357.318 169.764 351.022 171.149 344.039 171.149H344.035ZM341.787 99.0478C336.609 99.0478 332.437 100.862 329.255 104.491C326.069 108.119 324.042 113.177 323.162 119.659H359.093V118.257C358.677 111.929 356.995 107.15 354.048 103.906C351.097 100.667 347.013 99.0478 341.787 99.0478ZM415.972 64.9753V85.4321H430.796V99.4328H415.972V146.413C415.972 149.626 416.609 151.944 417.874 153.374C419.14 154.798 421.406 155.511 424.667 155.511C426.887 155.505 429.099 155.243 431.26 154.732V169.357C426.968 170.551 422.83 171.144 418.844 171.144C404.361 171.144 397.117 163.135 397.117 147.112V99.4284H383.293V85.4277H397.108V64.9709H415.963L415.972 64.9753ZM465.253 169.596H446.394V50.1206H465.253V169.596ZM505.839 169.596H486.98V85.4321H505.839V169.596ZM485.816 63.5726C485.816 60.6742 486.732 58.2626 488.568 56.3421C490.409 54.4261 493.033 53.4659 496.445 53.4659C499.861 53.4659 502.498 54.4261 504.366 56.3421C506.224 58.2626 507.153 60.6742 507.153 63.577C507.153 66.4267 506.224 68.7985 504.366 70.6924C502.498 72.5863 499.861 73.5333 496.445 73.5333C493.033 73.5333 490.409 72.5863 488.568 70.6924C486.732 68.8029 485.816 66.4267 485.816 63.577V63.5726ZM533 169.596V99.4284H520.194V85.4277H533V77.7282C533 68.3914 535.584 61.1875 540.757 56.1032C545.934 51.0233 553.173 48.4833 562.483 48.4833C565.798 48.4833 569.316 48.948 573.042 49.8816L572.577 64.6611C570.197 64.2195 567.78 64.012 565.36 64.0416C556.355 64.0416 551.855 68.679 551.855 77.9627V85.4277H568.926V99.4284H551.855V169.591H533V169.596ZM612.074 142.528L629.146 85.4321H649.244L615.88 182.353C610.756 196.508 602.065 203.588 589.803 203.588C587.06 203.588 584.033 203.119 580.723 202.186V187.561L584.294 187.796C589.051 187.796 592.635 186.928 595.043 185.189C597.445 183.455 599.348 180.539 600.746 176.441L603.459 169.206L573.971 85.4321H594.304L612.074 142.528Z" fill="currentColor"/>
    <path d="M123.399 90.5473L123.338 90.5208C123.302 90.5075 123.267 90.4942 123.236 90.4632C123.185 90.4087 123.147 90.3432 123.126 90.2719C123.104 90.2006 123.1 90.1252 123.112 90.0517L126.532 69.1392L142.573 85.1842L125.891 92.2819C125.844 92.3006 125.795 92.3097 125.745 92.3085H125.678C125.656 92.2952 125.634 92.2775 125.59 92.2332C124.969 91.542 124.227 90.9706 123.399 90.5473ZM146.666 89.2729L163.817 106.424C167.38 109.991 169.163 111.77 169.813 113.832C169.911 114.137 169.99 114.442 170.052 114.757L129.063 97.3972C129.041 97.3881 129.019 97.3793 128.997 97.3707C128.833 97.3043 128.643 97.2291 128.643 97.0609C128.643 96.8928 128.838 96.8131 129.002 96.7467L129.055 96.7246L146.666 89.2729ZM169.353 120.261C168.468 121.925 166.742 123.651 163.822 126.576L144.485 145.909L119.474 140.7L119.342 140.674C119.12 140.638 118.886 140.598 118.886 140.399C118.791 139.368 118.485 138.367 117.986 137.458C117.487 136.55 116.807 135.754 115.988 135.12C115.886 135.019 115.912 134.859 115.943 134.713C115.943 134.691 115.943 134.669 115.952 134.651L120.656 105.774L120.674 105.676C120.7 105.455 120.74 105.198 120.939 105.198C121.947 105.073 122.92 104.748 123.801 104.243C124.683 103.738 125.455 103.062 126.072 102.256C126.112 102.212 126.139 102.163 126.192 102.136C126.333 102.07 126.501 102.136 126.647 102.198L169.349 120.261H169.353ZM140.037 150.356L108.239 182.154L113.682 148.701L113.691 148.656C113.695 148.612 113.704 148.568 113.718 148.528C113.762 148.422 113.877 148.378 113.987 148.333L114.041 148.311C115.232 147.803 116.286 147.019 117.116 146.024C117.222 145.9 117.35 145.78 117.514 145.758C117.557 145.751 117.6 145.751 117.643 145.758L140.033 150.36L140.037 150.356ZM101.509 188.884L97.9247 192.468L58.2989 135.2C58.2845 135.179 58.2698 135.158 58.2546 135.138C58.1927 135.054 58.1263 134.97 58.1396 134.873C58.1396 134.802 58.1882 134.74 58.2369 134.687L58.2812 134.629C58.4006 134.452 58.5024 134.275 58.613 134.085L58.7015 133.93L58.7148 133.917C58.7768 133.811 58.8343 133.709 58.9405 133.651C59.0334 133.607 59.1617 133.625 59.2635 133.647L103.164 142.7C103.287 142.719 103.402 142.77 103.5 142.846C103.558 142.904 103.571 142.966 103.584 143.037C103.891 144.195 104.46 145.267 105.25 146.169C106.039 147.071 107.026 147.779 108.133 148.236C108.257 148.298 108.204 148.435 108.146 148.581C108.118 148.645 108.096 148.712 108.08 148.78C107.527 152.143 102.783 181.074 101.509 188.884ZM94.0219 196.367C91.3802 198.982 89.8226 200.367 88.0614 200.925C86.3249 201.474 84.4613 201.474 82.7249 200.925C80.6628 200.27 78.8795 198.491 75.3174 194.924L35.5234 155.13L45.9177 139.01C45.9664 138.93 46.0151 138.859 46.0947 138.802C46.2053 138.722 46.3646 138.758 46.4974 138.802C48.8832 139.522 51.4447 139.392 53.7455 138.435C53.865 138.39 53.9845 138.359 54.0774 138.444C54.1239 138.486 54.1654 138.533 54.2013 138.585L94.0219 196.367ZM31.6825 151.294L22.5581 142.165L40.5856 134.474C40.6317 134.454 40.6813 134.444 40.7316 134.443C40.8821 134.443 40.9706 134.594 41.0502 134.731C41.2314 135.01 41.4233 135.281 41.6255 135.545L41.683 135.616C41.7361 135.691 41.7007 135.766 41.6476 135.837L31.6913 151.294H31.6825ZM18.5137 138.125L6.96444 126.576C4.99974 124.611 3.57489 123.186 2.58369 121.96L37.7005 129.244C37.7446 129.252 37.7889 129.26 37.8332 129.266C38.0501 129.301 38.289 129.341 38.289 129.545C38.289 129.766 38.0279 129.868 37.8067 129.952L37.7049 129.996L18.5137 138.125ZM0.574738 116.022C0.614758 115.278 0.748566 114.542 0.972988 113.832C1.62789 111.77 3.40674 109.991 6.97329 106.424L21.7528 91.6447C28.5577 101.521 35.3811 111.384 42.2228 121.235C42.3423 121.394 42.4751 121.571 42.3379 121.704C41.6918 122.416 41.0458 123.195 40.59 124.04C40.5406 124.149 40.4645 124.243 40.3688 124.315C40.3112 124.35 40.2493 124.337 40.1829 124.323H40.1741L0.570312 116.018L0.574738 116.022ZM25.7087 87.6888L45.577 67.8161C47.4488 68.6347 54.25 71.5065 60.3255 74.073C64.9275 76.02 69.1224 77.79 70.4411 78.3653C70.5738 78.4184 70.6933 78.4715 70.7508 78.6042C70.7862 78.6839 70.7685 78.7857 70.7508 78.8697C70.4362 80.3042 70.483 81.7944 70.887 83.2063C71.291 84.6182 72.0394 85.9076 73.0651 86.9586C73.1978 87.0914 73.0651 87.2817 72.95 87.4454L72.8881 87.5383L52.7101 118.792C52.657 118.881 52.6083 118.956 52.5198 119.013C52.4136 119.08 52.2632 119.049 52.1393 119.018C51.3545 118.812 50.5477 118.702 49.7365 118.69C49.0108 118.69 48.2231 118.823 47.4266 118.969H47.4222C47.3337 118.982 47.2541 119 47.1833 118.947C47.1051 118.883 47.0378 118.807 46.9841 118.721L25.7087 87.6888ZM49.5949 63.8026L75.3218 38.0757C78.884 34.5135 80.6672 32.7303 82.7293 32.0798C84.4658 31.5307 86.3294 31.5307 88.0658 32.0798C90.1279 32.7303 91.9112 34.5135 95.4733 38.0757L101.049 43.6512L82.747 71.9844C82.7017 72.0669 82.64 72.1392 82.5656 72.1968C82.4549 72.2721 82.3001 72.2411 82.1673 72.1968C80.7247 71.7591 79.1972 71.6793 77.7168 71.9646C76.2365 72.2499 74.8479 72.8916 73.6713 73.8341C73.5518 73.958 73.3748 73.8872 73.2244 73.8208C70.8349 72.7809 52.2499 64.9266 49.5905 63.7982L49.5949 63.8026ZM104.934 47.5363L121.829 64.431L117.758 89.6446V89.711C117.754 89.7685 117.742 89.8251 117.722 89.8791C117.678 89.9676 117.589 89.9853 117.501 90.0119C116.631 90.2755 115.811 90.6839 115.076 91.2199C115.044 91.2424 115.015 91.2676 114.988 91.2951C114.939 91.3482 114.89 91.3969 114.811 91.4058C114.746 91.4078 114.681 91.3973 114.62 91.3748L88.8756 80.4362L88.8269 80.4141C88.6632 80.3477 88.4685 80.268 88.4685 80.0999C88.3172 78.6652 87.8486 77.2822 87.0968 76.051C86.9729 75.8475 86.8357 75.6351 86.9419 75.4271L104.934 47.5363ZM87.526 85.6134L111.66 95.8352C111.793 95.8971 111.939 95.9547 111.996 96.0918C112.019 96.1743 112.019 96.2616 111.996 96.3441C111.925 96.6981 111.863 97.1007 111.863 97.5078V98.1849C111.863 98.353 111.691 98.4238 111.532 98.4902L111.483 98.5079C107.66 100.141 57.8077 121.398 57.7325 121.398C57.6572 121.398 57.5776 121.398 57.5024 121.323C57.3696 121.19 57.5024 121.005 57.6218 120.836C57.643 120.807 57.6636 120.778 57.6838 120.748L77.5166 90.0384L77.552 89.9853C77.6671 89.7995 77.7998 89.5915 78.0122 89.5915L78.2114 89.6225C78.6627 89.6844 79.061 89.742 79.4636 89.742C82.4726 89.742 85.2604 88.2773 86.9419 85.7727C86.982 85.7059 87.0328 85.6461 87.0923 85.5957C87.2118 85.5072 87.3888 85.5515 87.526 85.6134ZM59.8874 126.257L114.226 103.083C114.226 103.083 114.306 103.083 114.381 103.159C114.678 103.455 114.93 103.654 115.173 103.84L115.293 103.915C115.403 103.977 115.514 104.048 115.523 104.163C115.523 104.207 115.523 104.234 115.514 104.274L110.863 132.872L110.846 132.987C110.815 133.209 110.784 133.461 110.576 133.461C109.335 133.545 108.133 133.93 107.074 134.583C106.015 135.236 105.132 136.137 104.5 137.209L104.478 137.244C104.416 137.346 104.359 137.443 104.257 137.497C104.164 137.541 104.045 137.523 103.947 137.501L60.6131 128.562C60.5689 128.554 59.9405 126.266 59.8919 126.261L59.8874 126.257Z" fill="currentColor"/>
</svg>

<svg xmlns="http://www.w3.org/2000/svg" width="650" height="220" fill="none">
    <path fill="currentColor" fill-rule="evenodd"
        d="m236.162 85.428.544 9.726c6.208-7.523 14.359-11.284 24.448-11.284 17.483 0 26.382 10.036 26.692 30.108v55.613h-18.851v-54.525c0-5.341-1.15-9.292-3.451-11.863-2.301-2.567-6.067-3.85-11.293-3.85-7.606 0-13.275 3.452-16.992 10.346v59.892H218.4V85.428h17.771-.009Zm107.873 85.721c-11.948 0-21.639-3.77-29.059-11.315-7.426-7.545-11.138-17.594-11.138-30.143v-2.332c0-8.399 1.615-15.908 4.85-22.519 3.23-6.61 7.774-11.757 13.62-15.443 5.845-3.677 12.363-5.518 19.558-5.518 11.43 0 20.267 3.655 26.497 10.965 6.239 7.315 9.355 17.656 9.355 31.037v7.624h-54.87c.575 6.948 2.885 12.443 6.947 16.488 4.062 4.044 9.173 6.067 15.328 6.067 8.638 0 15.673-3.496 21.107-10.501l10.165 9.726c-3.363 5.027-7.85 8.93-13.461 11.704-5.616 2.775-11.912 4.16-18.895 4.16h-.004Zm-2.248-72.101c-5.178 0-9.35 1.814-12.532 5.443-3.186 3.628-5.213 8.686-6.093 15.168h35.931v-1.402c-.416-6.328-2.098-11.107-5.045-14.351-2.951-3.239-7.035-4.858-12.261-4.858Zm74.185-34.073v20.457h14.824v14h-14.824v46.981c0 3.213.637 5.531 1.902 6.961 1.266 1.424 3.532 2.137 6.793 2.137a28.99 28.99 0 0 0 6.593-.779v14.625c-4.292 1.194-8.43 1.787-12.416 1.787-14.483 0-21.727-8.009-21.727-24.032V99.428h-13.824v-14h13.815V64.97h18.855l.009.004Zm49.281 104.621h-18.859V50.121h18.859v119.475Zm40.586 0H486.98V85.432h18.859v84.164ZM485.816 63.573c0-2.899.916-5.31 2.752-7.23 1.841-1.917 4.465-2.877 7.877-2.877 3.416 0 6.053.96 7.921 2.876 1.858 1.92 2.787 4.332 2.787 7.235 0 2.85-.929 5.222-2.787 7.115-1.868 1.894-4.505 2.841-7.921 2.841-3.412 0-6.036-.947-7.877-2.84-1.836-1.89-2.752-4.266-2.752-7.116v-.004ZM533 169.596V99.428h-12.806v-14H533v-7.7c0-9.337 2.584-16.54 7.757-21.625 5.177-5.08 12.416-7.62 21.726-7.62 3.315 0 6.833.465 10.559 1.399l-.465 14.78a37.073 37.073 0 0 0-7.217-.62c-9.005 0-13.505 4.637-13.505 13.92v7.466h17.071v14h-17.071v70.163H533v.005Zm79.074-27.068 17.072-57.096h20.098l-33.364 96.921c-5.124 14.155-13.815 21.235-26.077 21.235-2.743 0-5.77-.469-9.08-1.402v-14.625l3.571.235c4.757 0 8.341-.868 10.749-2.607 2.402-1.734 4.305-4.65 5.703-8.748l2.713-7.235-29.488-83.774h20.333l17.77 57.096Z"
        clip-rule="evenodd" />
    <path fill="currentColor"
        d="m123.399 90.547-.061-.026a.26.26 0 0 1-.102-.058.479.479 0 0 1-.124-.411l3.42-20.913 16.041 16.045-16.682 7.098a.369.369 0 0 1-.146.026h-.067a.458.458 0 0 1-.088-.075 7.588 7.588 0 0 0-2.191-1.686Zm23.267-1.274 17.151 17.151c3.563 3.567 5.346 5.346 5.996 7.408.098.305.177.61.239.925l-40.989-17.36a3.634 3.634 0 0 0-.066-.026c-.164-.067-.354-.142-.354-.31s.195-.248.359-.314l.053-.022 17.611-7.452Zm22.687 30.988c-.885 1.664-2.611 3.39-5.531 6.315l-19.337 19.333-25.011-5.209-.132-.026c-.222-.036-.456-.076-.456-.275a7.55 7.55 0 0 0-2.898-5.279c-.102-.101-.076-.261-.045-.407 0-.022 0-.044.009-.062l4.704-28.877.018-.098c.026-.221.066-.478.265-.478a7.649 7.649 0 0 0 5.133-2.942c.04-.044.067-.093.12-.12.141-.066.309 0 .455.062l42.702 18.063h.004Zm-29.316 30.095-31.798 31.798 5.443-33.453.009-.045a.54.54 0 0 1 .027-.128c.044-.106.159-.15.269-.195l.054-.022a8.189 8.189 0 0 0 3.075-2.287c.106-.124.234-.244.398-.266a.399.399 0 0 1 .129 0l22.39 4.602.004-.004Zm-38.528 38.528-3.584 3.584L58.299 135.2a1.57 1.57 0 0 0-.044-.062c-.062-.084-.129-.168-.115-.265 0-.071.048-.133.097-.186l.044-.058c.12-.177.221-.354.332-.544l.089-.155.013-.013c.062-.106.12-.208.225-.266.093-.044.222-.026.324-.004l43.9 9.053a.73.73 0 0 1 .336.146c.058.058.071.12.084.191a7.777 7.777 0 0 0 4.549 5.199c.124.062.071.199.013.345a1.16 1.16 0 0 0-.066.199c-.553 3.363-5.297 32.294-6.571 40.104Zm-7.487 7.483c-2.642 2.615-4.2 4-5.96 4.558a8.851 8.851 0 0 1-5.337 0c-2.062-.655-3.846-2.434-7.408-6.001L35.523 155.13l10.395-16.12a.654.654 0 0 1 .177-.208c.11-.08.27-.044.402 0 2.386.72 4.948.59 7.248-.367.12-.045.24-.076.332.009a.81.81 0 0 1 .124.141l39.82 57.782Zm-62.34-45.073-9.124-9.129 18.028-7.691a.385.385 0 0 1 .146-.031c.15 0 .239.151.318.288.181.279.373.55.576.814l.057.071c.053.075.018.15-.035.221l-9.957 15.457h-.008Zm-13.168-13.169-11.55-11.549c-1.964-1.965-3.39-3.39-4.38-4.616l35.117 7.284c.044.008.088.016.132.022.217.035.456.075.456.279 0 .221-.261.323-.482.407l-.102.044-19.191 8.129ZM.574 116.022c.04-.744.175-1.48.399-2.19.655-2.062 2.434-3.841 6-7.408l14.78-14.78a9663.185 9663.185 0 0 0 20.47 29.591c.12.159.252.336.115.469-.646.712-1.292 1.491-1.748 2.336a.712.712 0 0 1-.221.275c-.058.035-.12.022-.186.008h-.009L.57 116.018l.005.004ZM25.71 87.689l19.868-19.873c1.872.819 8.673 3.69 14.748 6.257 4.602 1.947 8.797 3.717 10.116 4.292.133.053.252.107.31.24.035.079.017.18 0 .265a8.863 8.863 0 0 0 2.314 8.089c.133.132 0 .323-.115.486l-.062.093-20.178 31.254a.603.603 0 0 1-.19.221c-.106.067-.257.036-.38.005a10.05 10.05 0 0 0-2.404-.328c-.725 0-1.513.133-2.31.279h-.004c-.088.013-.168.031-.239-.022a.925.925 0 0 1-.199-.226L25.71 87.689Zm23.886-23.886 25.727-25.727c3.562-3.563 5.345-5.346 7.407-5.996a8.85 8.85 0 0 1 5.337 0c2.062.65 3.845 2.434 7.407 5.996l5.576 5.575-18.302 28.333a.686.686 0 0 1-.181.213c-.111.075-.266.044-.399 0a9.28 9.28 0 0 0-8.496 1.637c-.12.124-.296.053-.447-.013-2.39-1.04-20.974-8.894-23.634-10.023l.005.005Zm55.339-16.267 16.895 16.895-4.071 25.214v.066a.605.605 0 0 1-.036.168c-.044.089-.133.106-.221.133-.87.263-1.69.672-2.425 1.208a.635.635 0 0 0-.088.075c-.049.053-.098.102-.177.11a.507.507 0 0 1-.191-.03L88.876 80.436l-.05-.022c-.163-.066-.357-.146-.357-.314a9.727 9.727 0 0 0-1.372-4.049c-.124-.204-.261-.416-.155-.624l17.992-27.89ZM87.526 85.613l24.134 10.222c.133.062.279.12.336.257a.47.47 0 0 1 0 .252 5.982 5.982 0 0 0-.133 1.164v.677c0 .168-.172.239-.331.305l-.049.018c-3.823 1.633-53.675 22.89-53.75 22.89-.076 0-.155 0-.23-.075-.133-.133 0-.318.119-.487l.062-.088 19.833-30.71.035-.053c.115-.186.248-.394.46-.394l.2.032c.45.061.849.119 1.252.119 3.009 0 5.796-1.465 7.478-3.97a.713.713 0 0 1 .15-.176c.12-.089.297-.044.434.017Zm-27.639 40.644 54.339-23.174s.08 0 .155.076c.297.296.549.495.792.681l.12.075c.11.062.221.133.23.248 0 .044 0 .071-.009.111l-4.651 28.598-.017.115c-.031.222-.062.474-.27.474a7.657 7.657 0 0 0-6.076 3.748l-.022.035c-.062.102-.119.199-.221.253-.093.044-.212.026-.31.004l-43.334-8.939c-.044-.008-.672-2.296-.721-2.301l-.005-.004Z" />
</svg>
